X: 220
T: The Widow's wish
%R: reel
B: "Twenty Four Country Dances for the Year 1793", Preston & Son, eds. p.90
F: http://www.vwml.org/browse/browse-collections-dance-tune-books/browse-prestons1793# 2014-8-7
Z: 2014 John Chambers <jc:trillian.mit.edu>
M: 2/4
L: 1/8
K: F
|:\
FAcf | cAGF | EGcB | {B}A2GF |\
a2fc | d2ef | cAAF | G2G2 :|
|:\
d2ef | cAA2 | G2AB | AFF2 |\
d2d/d/e | cAA2 | cBAG | F2F2 :|
% = = = = = = = = = = = = = = = = = = = = = = = = =
%%begintext align
%% Foot it & right hands across with
%% the 2d Cu: .| Foot it & left hands
%% back :| Lead down the middle
%% up again :|. Allemande :|:
%%endtext
% = = = = = = = = = = = = = = = = = = = = = = = = =

%%sep 1 1 500
%%sep 1 1 500
